!!!OTL: Der bestrafte F&auml;hnrich (35a), S. 122f
!!!id: T0160
**kern
*clefG2
*k[]
*G:
{8d
=1
8g
8g
8g
16g
16g
=2
8g
8b
8a}
=3
{8d
=4
8g
8g
8g
16g
16g
=5
8g
8b
8a}
=6
{8g
=7
4a
8.a
16b
=8
4a}
8r
=9
{16dd
16cc
=10
8.b
16b
8b
8b
=11
8b
8dd
8cc}
=12
{8b
=13
8.a
16a
8cc
8ee
=14
4dd}
=15
{8b
8dd
=16
8.dd
16cc
8cc
8b
=17
4dd
4cc
=18
4b}
8r
==
*-
!!!minrhy: 16
!!!meters: 2/4 ]  ZZ[6
!!!cut: Der bestrafte F&auml;hnrich (35a), S. 122f
!!!reg: Luxemburg
!!!trd: Singendes Volk, Esch-Alzette 1937 posth.
!!!rhy1: X_  X_X_X_XX  X_X_X_
!!!rhy2: X_  X_X_X_XX  X_X_X_
!!!key: T0160  16  G 2/4 ]  ZZ[6
!!!mod: SECHSTONSKALA DUR ?]  AMBITUS[9
!!!kad: 222453
!!!akz: 11_11_22_33_25_553_
!!!fot: 'a__a__as'as'b__c__
!!!for: 'a__a__b__c__cw_cw_
!!!fok: '/__/__/__\__/__^__
!! PHRAS[AUFTAKTIG]
!!!fkt: Liebeslieder
!!!bem: Rammeldingen, fff Mathias Wagner, 25.2.1934
!! THILL, Mathias:
!! PR[38] 2K[0] 2G[13] 3K[4] 3G[0] 4A[9] 4Ü[0] 5A[0] 6K[0] 6G[0]
!! 7K[0] 7G[2] 8A[0] MEHR[0] SI[28] ABS[53] SR[13] SP[15]
!! ST[10] 2k[6] 2g[23] 3k[2] 3g[0] 4d[0] 4ü[0] 5d[0] 6k[0] 6g[2]
!! 7k[0] 7g[0] 8d[2] mehr[0] si[34] dm[-6] sr[28] sp[6]
!! 1F[9] 2F[45] 3F[39] 4F[2] LF[0] 2P[5] 3P[0] 4P[0] TRI[0] DF[5] AB[56]
!! TF[0] U3K[0] U3[0] U4[0] U4Ü[0] U5[6] U6K[0] U6[0] U7K[0] U7[0]
!! N1[20] N2K[0] N2[28] N3K[0] N3[22] N4[6] N4Ü[0] N5[15] N6K[0] N6[2]
!!!n7k: 0] N7[2] O1[0] O2K[0] O2[0] O3K[0] O3[0] HÖ[0
!!!RNB: symbol: &auml;      = a umlaut  (UTF-8: Å„)
